T: Going To Donnybrook
M: 6/8
L: 1/8
K: Gmaj
DGG BAB | AGG GBd | ege dBG | AGA  BGE |DGG BAB | AGG GBd | ege dBA | BGG G2 :|gfg efg | edB def | g3 eag | fdc def |gfg efg | edB def | gdB AGA |  BGG G2 :|[2 gba gfe | dBA B2 ||
